build/images/content/for/img_3.svg

<svg width="120" height="120" viewBox="0 0 120 120" fill="none" xmlns="http://www.w3.org/2000/svg">
<g clip-path="url(#clip0)">
<path d="M92.3744 65.2247L89.6367 62.487C91.0172 61.1066 91.0172 58.8607 89.6367 57.4803C88.2991 56.1427 85.9681 56.1427 84.63 57.4803L81.8923 54.7426L83.8282 52.8067C85.2087 51.4263 85.2087 49.1805 83.8282 47.8C82.4906 46.4624 80.1596 46.4624 78.8215 47.8L76.8856 49.7359L74.148 46.9982L78.0201 43.126C79.4006 41.7456 79.4006 39.4998 78.0201 38.1193C76.6397 36.7389 74.3939 36.7389 73.0134 38.1193L69.1413 41.9915L66.4036 39.2538L68.3395 37.3179C69.0093 36.6481 69.3752 35.7596 69.3752 34.8146C69.3752 33.8696 69.0093 32.9811 68.3395 32.3112C66.959 30.9308 64.7132 30.9308 63.3328 32.3112L61.3969 34.2471L58.6592 31.5095L60.5951 29.5736C63.4835 26.6851 68.1883 26.6851 71.0767 29.5736C72.2133 30.7101 72.9003 32.1253 73.1442 33.6005C75.7267 32.7351 78.7004 33.3258 80.7566 35.3816C82.8125 37.4375 83.4051 40.4095 82.5378 42.9941C84.013 43.238 85.4282 43.9254 86.5647 45.0615C88.6206 47.1174 89.2132 50.0894 88.3459 52.674C89.8211 52.9179 91.2363 53.6053 92.3728 54.7414C95.2649 57.6315 95.2649 62.3362 92.3744 65.2247Z" fill="#043A52"/>
<path d="M62.5335 87.6553L56.9889 93.1982L43.4848 98.9867L23.8867 116.624L26.4772 119.501L33.0595 113.577C33.8457 113.973 34.6275 114.382 35.4197 114.736L37.0033 111.205C36.7206 111.077 36.4399 110.922 36.1571 110.788L45.5971 102.291L59.1975 96.4642L65.2688 90.391L62.5335 87.6553Z" fill="#043A52"/>
<path d="M49.8568 20.4619L20.5088 49.8099L27.2558 56.5569L33.8885 50.143L33.9117 50.1198C35.5033 48.5282 38.0934 48.5282 39.685 50.1198C41.0558 51.4907 41.2706 53.6569 40.1961 55.2697L34.5043 63.8035L70.2063 99.5054L99.5542 70.1574L49.8568 20.4619ZM67.0755 67.0286C63.1861 70.918 56.8785 70.918 52.9871 67.0286C49.0978 63.1392 49.0978 56.8317 52.9871 52.9403C56.8765 49.0509 63.1841 49.0509 67.0755 52.9403C70.9649 56.8297 70.9649 63.1372 67.0755 67.0286Z" fill="#00BBD3"/>
<path d="M60.0323 71.882C56.8536 71.882 53.8643 70.6431 51.6185 68.3953C49.3707 66.1495 48.1318 63.1603 48.1318 59.9835C48.1318 56.8027 49.3707 53.8155 51.6185 51.5697C53.8643 49.3219 56.8516 48.083 60.0323 48.083C63.2111 48.083 66.1987 49.3219 68.4441 51.5697C70.692 53.8155 71.9308 56.8027 71.9308 59.9835C71.9308 63.1623 70.692 66.1495 68.4441 68.3953C66.1983 70.6447 63.2111 71.882 60.0323 71.882ZM60.0323 51.9568C57.8893 51.9568 55.8738 52.793 54.3558 54.309C52.8378 55.825 52.0036 57.8401 52.0036 59.9855C52.0036 62.1266 52.8398 64.142 54.3558 65.66C55.8718 67.176 57.8873 68.0122 60.0323 68.0122C62.1734 68.0122 64.1889 67.176 65.7069 65.66C67.2249 64.144 68.059 62.1286 68.059 59.9855C68.059 57.8425 67.2229 55.827 65.7069 54.309C64.1909 52.791 62.1734 51.9568 60.0323 51.9568Z" fill="#043A52"/>
<path d="M31.3155 68.5888L34.537 70.7358L43.4175 57.4161C45.5122 54.2721 45.0943 50.0516 42.4226 47.3799C39.321 44.2783 34.2739 44.2783 31.1723 47.3799L19.5253 59.0269L15.6531 78.387L9.53913 84.5046C9.37437 84.1659 9.18882 83.8368 9.03206 83.4961L5.51617 85.1185C5.87048 85.8831 6.26918 86.6325 6.65827 87.3855L0.581055 93.4627L3.31874 96.2004L19.221 80.2981L23.0932 60.938L33.9116 50.1192C35.5032 48.5276 38.0933 48.5276 39.6849 50.1192C41.0557 51.49 41.2705 53.6563 40.196 55.2691L31.3155 68.5888Z" fill="#043A52"/>
<path d="M7.92286 39.0401L4.3314 37.5957C3.32086 40.1106 2.47268 42.7184 1.81445 45.3417L5.56828 46.2826C6.18612 43.8277 6.97791 41.3903 7.92286 39.0401Z" fill="#043A52"/>
<path d="M15.4556 25.8412L12.3852 23.4814C10.7356 25.6265 9.21958 27.9091 7.87793 30.2633L11.2387 32.18C12.4955 29.9826 13.9144 27.8471 15.4556 25.8412Z" fill="#043A52"/>
<path d="M0.77832 69.5821C1.20621 72.2519 1.82365 74.9216 2.61544 77.5141L6.31728 76.3836C5.57787 73.9598 5.00082 71.4661 4.60013 68.9707L0.77832 69.5821Z" fill="#043A52"/>
<path d="M3.88546 59.9833C3.88546 57.9098 4.00143 55.8208 4.22618 53.7725L0.377577 53.3486C0.13564 55.5365 0.0136719 57.7667 0.0136719 59.9909C0.0156714 60.4904 0.0212699 60.9843 0.0328669 61.4777L3.90506 61.3865C3.89346 60.9183 3.88746 60.4476 3.88546 59.9833Z" fill="#043A52"/>
<path d="M109.954 26.6667C108.449 24.4169 106.777 22.2507 104.988 20.2256L102.088 22.7889C103.765 24.6844 105.329 26.7131 106.736 28.8178L109.954 26.6667Z" fill="#043A52"/>
<path d="M26.2425 15.1378L23.9095 12.0479C21.7529 13.6762 19.683 15.4706 17.7607 17.3757L20.4868 20.125C22.2872 18.3398 24.2231 16.6635 26.2425 15.1378Z" fill="#043A52"/>
<path d="M116.118 57.412L119.987 57.2341C119.865 54.5256 119.555 51.8035 119.071 49.1514L115.263 49.8424C115.716 52.3281 116.002 54.8723 116.118 57.412Z" fill="#043A52"/>
<path d="M117.065 41.2596C116.221 38.6887 115.193 36.1506 114.008 33.7168L110.525 35.4108C111.635 37.6894 112.597 40.0611 113.387 42.4657L117.065 41.2596Z" fill="#043A52"/>
<path d="M39.4872 7.71634L38.07 4.11328C35.555 5.10262 33.0829 6.27592 30.7207 7.59997L32.6162 10.9763C34.8212 9.73782 37.135 8.6401 39.4872 7.71634Z" fill="#043A52"/>
<path d="M61.8516 3.8682C64.3877 3.94937 66.9354 4.20491 69.4272 4.6252L70.0698 0.805391C67.4081 0.358307 64.684 0.0851779 61.9755 0L61.8516 3.8682Z" fill="#043A52"/>
<path d="M88.4648 108.409L90.4319 111.745C92.7589 110.374 95.0183 108.83 97.1462 107.153L94.7496 104.113C92.7569 105.679 90.6447 107.126 88.4648 108.409Z" fill="#043A52"/>
<path d="M90.5762 12.8685C92.7 14.2469 94.7483 15.7861 96.667 17.4413L99.1975 14.5064C97.1433 12.7389 94.9558 11.0933 92.6868 9.62012L90.5762 12.8685Z" fill="#043A52"/>
<path d="M76.8311 6.39501C79.2492 7.15201 81.6342 8.08337 83.9264 9.16149L85.576 5.6592C83.127 4.5035 80.5733 3.51016 77.9887 2.70117L76.8311 6.39501Z" fill="#043A52"/>
<path d="M109.393 86.7544L112.796 88.6031C114.089 86.2237 115.231 83.732 116.188 81.2019L112.566 79.833C111.671 82.2008 110.605 84.5298 109.393 86.7544Z" fill="#043A52"/>
<path d="M114.763 72.5422L118.536 73.4036C119.14 70.7686 119.566 68.0641 119.806 65.3652L115.95 65.0205C115.727 67.5471 115.326 70.0776 114.763 72.5422Z" fill="#043A52"/>
<path d="M100.396 99.0052L103.181 101.698C105.06 99.7562 106.826 97.6656 108.431 95.4778L105.312 93.1855C103.806 95.2322 102.154 97.1893 100.396 99.0052Z" fill="#043A52"/>
<path d="M74.4551 114.258L75.45 118.002C78.0657 117.309 80.6559 116.428 83.1532 115.382L81.6604 111.809C79.3262 112.784 76.9024 113.609 74.4551 114.258Z" fill="#043A52"/>
<path d="M43.2676 117.626C45.8717 118.379 48.547 118.96 51.2207 119.357L51.7842 115.526C49.2828 115.158 46.7795 114.612 44.3441 113.905L43.2676 117.626Z" fill="#043A52"/>
<path d="M45.8271 1.65929L46.7389 5.42111C49.1939 4.82687 51.7164 4.39298 54.243 4.13385L53.8463 0.28125C51.1454 0.559578 48.4485 1.02426 45.8271 1.65929Z" fill="#043A52"/>
<path d="M60.0299 116.128L59.3717 116.124L59.3369 119.996L60.0299 120C62.5137 120 65.013 119.847 67.4584 119.545L66.9821 115.704C64.6955 115.985 62.3569 116.128 60.0299 116.128Z" fill="#043A52"/>
</g>
<defs>
<clipPath id="clip0">
<rect width="120" height="120" fill="white"/>
</clipPath>
</defs>
</svg>

<svg width="120" height="120" fill="none" xmlns="http://www.w3.org/2000/svg"><g clip-path="url(#clip0)"><path d="M92.374 65.225l-2.737-2.738a3.544 3.544 0 000-5.007c-1.338-1.337-3.669-1.337-5.007 0l-2.738-2.737 1.936-1.936a3.544 3.544 0 000-5.007c-1.337-1.338-3.668-1.338-5.007 0l-1.935 1.936-2.738-2.738 3.872-3.872a3.544 3.544 0 000-5.007 3.544 3.544 0 00-5.007 0l-3.872 3.873-2.737-2.738 1.936-1.936a3.514 3.514 0 001.035-2.503c0-.945-.366-1.834-1.035-2.504a3.544 3.544 0 00-5.007 0l-1.936 1.936-2.738-2.738 1.936-1.935c2.889-2.889 7.593-2.889 10.482 0a7.374 7.374 0 012.067 4.026 7.428 7.428 0 017.613 1.782 7.423 7.423 0 011.78 7.612 7.377 7.377 0 014.028 2.068 7.423 7.423 0 011.78 7.612 7.377 7.377 0 014.028 2.067c2.892 2.89 2.892 7.595.001 10.484zm-29.841 22.43l-5.544 5.543-13.504 5.789-19.598 17.637 2.59 2.877 6.582-5.924c.787.396 1.569.805 2.36 1.159l1.584-3.531c-.282-.128-.563-.283-.846-.417l9.44-8.497 13.6-5.827 6.072-6.073-2.736-2.736z" fill="#043A52"/><path d="M49.857 20.462L20.509 49.81l6.747 6.747 6.633-6.414.023-.023a4.087 4.087 0 015.773 0 4.094 4.094 0 01.511 5.15l-5.692 8.533 35.702 35.702 29.348-29.348-49.697-49.695zm17.219 46.567c-3.89 3.889-10.197 3.889-14.089 0-3.89-3.89-3.89-10.197 0-14.089 3.89-3.89 10.197-3.89 14.089 0 3.889 3.89 3.889 10.197 0 14.089z" fill="#00BBD3"/><path d="M60.032 71.882a11.817 11.817 0 01-8.413-3.487 11.816 11.816 0 01-3.487-8.411c0-3.181 1.239-6.169 3.486-8.414a11.814 11.814 0 018.414-3.487 11.81 11.81 0 018.412 3.487 11.813 11.813 0 013.487 8.413 11.81 11.81 0 01-3.487 8.412 11.806 11.806 0 01-8.412 3.487zm0-19.925a7.982 7.982 0 00-5.676 2.352 7.967 7.967 0 00-2.352 5.677c0 2.14.836 4.156 2.352 5.674a7.976 7.976 0 005.676 2.352 7.981 7.981 0 005.675-2.352 7.966 7.966 0 002.352-5.674 7.982 7.982 0 00-2.352-5.677 7.97 7.97 0 00-5.675-2.352zM31.316 68.589l3.221 2.147 8.88-13.32a7.977 7.977 0 00-.994-10.036c-3.102-3.102-8.15-3.102-11.25 0L19.524 59.027l-3.872 19.36-6.114 6.118c-.165-.34-.35-.668-.507-1.009L5.516 85.12c.354.764.753 1.513 1.142 2.266L.581 93.463 3.32 96.2l15.9-15.902 3.872-19.36 10.819-10.819a4.087 4.087 0 015.773 0 4.094 4.094 0 01.511 5.15l-8.88 13.32zM7.923 39.04L4.33 37.596a60.064 60.064 0 00-2.517 7.746l3.754.94a56.353 56.353 0 012.355-7.242zm7.533-13.199l-3.07-2.36a59.453 59.453 0 00-4.508 6.782l3.36 1.917a56.417 56.417 0 014.218-6.339zM.778 69.582a59.478 59.478 0 001.837 7.932l3.702-1.13A55.822 55.822 0 014.6 68.97l-3.822.611zm3.107-9.599c0-2.073.116-4.162.341-6.21l-3.848-.424a60.609 60.609 0 00-.345 8.129l3.872-.092a68.779 68.779 0 01-.02-1.403zm106.069-33.316a60.96 60.96 0 00-4.966-6.441l-2.9 2.563a56.62 56.62 0 014.648 6.029l3.218-2.151zM26.242 15.138l-2.332-3.09a60.914 60.914 0 00-6.15 5.328l2.727 2.749a57.005 57.005 0 015.756-4.987zm89.876 42.274l3.869-.178a60.324 60.324 0 00-.916-8.083l-3.808.691a56.8 56.8 0 01.855 7.57zm.947-16.152a60.145 60.145 0 00-3.057-7.543l-3.483 1.694a56.247 56.247 0 012.862 7.055l3.678-1.206zM39.487 7.716L38.07 4.113A60.021 60.021 0 0030.72 7.6l1.896 3.376a55.555 55.555 0 016.871-3.26zm22.365-3.848a56.6 56.6 0 017.575.757l.643-3.82A60.534 60.534 0 0061.976 0l-.124 3.868zm26.613 104.541l1.967 3.336a60.5 60.5 0 006.714-4.592l-2.396-3.04a57.003 57.003 0 01-6.285 4.296zm2.111-95.541a56.193 56.193 0 016.091 4.573l2.53-2.935a60.695 60.695 0 00-6.51-4.886l-2.11 3.248zM76.831 6.395a56.113 56.113 0 017.095 2.766l1.65-3.502a59.448 59.448 0 00-7.587-2.958L76.83 6.395zm32.562 80.359l3.403 1.85a60.07 60.07 0 003.392-7.402l-3.622-1.369a55.621 55.621 0 01-3.173 6.921zm5.37-14.212l3.773.862a59.814 59.814 0 001.27-8.039l-3.856-.344a56.006 56.006 0 01-1.187 7.521zm-14.367 26.463l2.785 2.693a60.072 60.072 0 005.25-6.22l-3.119-2.292a56.721 56.721 0 01-4.916 5.82zm-25.941 15.253l.995 3.744a59.34 59.34 0 007.703-2.62l-1.493-3.573a56.011 56.011 0 01-7.205 2.449zm-31.187 3.368a60.96 60.96 0 007.953 1.731l.563-3.831a56.041 56.041 0 01-7.44-1.621l-1.076 3.721zM45.827 1.66l.912 3.761a56.5 56.5 0 017.504-1.287L53.846.28c-2.7.279-5.397.743-8.019 1.378zM60.03 116.128l-.658-.004-.035 3.872.693.004c2.484 0 4.983-.153 7.428-.455l-.476-3.841a57.206 57.206 0 01-6.952.424z" fill="#043A52"/></g><defs><clipPath id="clip0"><path fill="#fff" d="M0 0h120v120H0z"/></clipPath></defs></svg>
